storage/app/icons/phosphoricons/regular/arrows-in.svg

<svg xmlns="http://www.w3.org/2000/svg" fill="currentColor" viewBox="0 0 256 256"><path d="M144 104V64a8 8 0 0 1 16 0v20.69l42.34-42.35a8 8 0 0 1 11.32 11.32L171.31 96H192a8 8 0 0 1 0 16h-40a8 8 0 0 1-8-8m-40 40H64a8 8 0 0 0 0 16h20.69l-42.35 42.34a8 8 0 0 0 11.32 11.32L96 171.31V192a8 8 0 0 0 16 0v-40a8 8 0 0 0-8-8m67.31 16H192a8 8 0 0 0 0-16h-40a8 8 0 0 0-8 8v40a8 8 0 0 0 16 0v-20.69l42.34 42.35a8 8 0 0 0 11.32-11.32ZM104 56a8 8 0 0 0-8 8v20.69L53.66 42.34a8 8 0 0 0-11.32 11.32L84.69 96H64a8 8 0 0 0 0 16h40a8 8 0 0 0 8-8V64a8 8 0 0 0-8-8"/></svg>

<svg xmlns="http://www.w3.org/2000/svg" viewBox="0 0 256 256" fill="currentColor"><path d="M144,104V64a8,8,0,0,1,16,0V84.69l42.34-42.35a8,8,0,0,1,11.32,11.32L171.31,96H192a8,8,0,0,1,0,16H152A8,8,0,0,1,144,104Zm-40,40H64a8,8,0,0,0,0,16H84.69L42.34,202.34a8,8,0,0,0,11.32,11.32L96,171.31V192a8,8,0,0,0,16,0V152A8,8,0,0,0,104,144Zm67.31,16H192a8,8,0,0,0,0-16H152a8,8,0,0,0-8,8v40a8,8,0,0,0,16,0V171.31l42.34,42.35a8,8,0,0,0,11.32-11.32ZM104,56a8,8,0,0,0-8,8V84.69L53.66,42.34A8,8,0,0,0,42.34,53.66L84.69,96H64a8,8,0,0,0,0,16h40a8,8,0,0,0,8-8V64A8,8,0,0,0,104,56Z"/></svg>
